assets/static/images/calendar-icon-white.svg

<svg width="16" height="16" viewBox="0 0 16 16" fill="none" xmlns="http://www.w3.org/2000/svg">
<path d="M13.829 1.04723H13.1222L12.9202 1.80259C12.7519 2.48929 12.0956 3.00431 11.4224 3.00431C11.0522 3.00431 10.6987 2.8498 10.4968 2.55796C10.278 2.26611 10.2107 1.87126 10.3117 1.49358L10.4295 1.04723H8.15751L7.95556 1.80259C7.77043 2.48929 7.13092 3.00431 6.44091 3.00431C6.07067 3.00431 5.73408 2.8498 5.5153 2.55796C5.29652 2.26611 5.2292 1.87126 5.33017 1.49358L5.44798 1.04723H4.70749C3.57992 1.04723 2.45235 1.93993 2.16625 3.09015L0.079409 10.9356C-0.0888848 11.5537 0.0120914 12.1717 0.365508 12.618C0.702096 13.0644 1.22381 13.3219 1.81283 13.3219H2.83943V13.7854C2.83943 15.0043 3.81553 16 5.01042 16H13.829C15.0239 16 16 15.0043 16 13.7854V3.26182C16 2.04293 15.0239 1.04723 13.829 1.04723ZM1.82966 11.9829C1.69503 11.9829 1.52674 11.9485 1.42576 11.8112C1.32478 11.691 1.30795 11.5022 1.37527 11.2962L3.09187 4.73822H13.5597L11.9273 10.9528C11.7758 11.5193 11.1868 12 10.6483 12H1.82966V11.9829ZM14.6873 13.7854C14.6873 14.2661 14.3002 14.661 13.829 14.661H5.02725C4.55602 14.661 4.16895 14.2661 4.16895 13.7854V13.3219H10.6483C11.7758 13.3219 12.9034 12.4292 13.1895 11.279L14.6873 5.59658V13.7854Z" fill="white"/>
<path d="M6.44097 2.38627C6.84488 2.38627 7.24878 2.06009 7.34976 1.64807L7.58537 0.7382C7.68635 0.326181 7.45074 0 7.06366 0C6.65975 0 6.25585 0.326181 6.15487 0.7382L5.91926 1.64807C5.81828 2.04292 6.0539 2.38627 6.44097 2.38627Z" fill="white"/>
<path d="M11.4224 2.38627C11.8263 2.38627 12.2302 2.06009 12.3312 1.64807L12.5668 0.7382C12.6678 0.326181 12.4322 0 12.0451 0C11.6412 0 11.2373 0.326181 11.1363 0.7382L10.8839 1.64807C10.7829 2.04292 11.0185 2.38627 11.4224 2.38627Z" fill="white"/>
<path d="M8.0396 8.77255H6.47446C6.37349 8.77255 6.25568 8.85839 6.22202 8.96139L5.91909 10.1288C5.88544 10.2318 5.95275 10.3176 6.05373 10.3176H7.61886C7.71984 10.3176 7.83764 10.2318 7.8713 10.1288L8.17423 8.96139C8.20789 8.85839 8.14057 8.77255 8.0396 8.77255Z" fill="white"/>
<path d="M5.27983 8.77255H3.7147C3.61372 8.77255 3.49592 8.85839 3.46226 8.96139L3.15933 10.1288C3.12567 10.2318 3.19299 10.3176 3.29396 10.3176H4.8591C4.96007 10.3176 5.07788 10.2318 5.11154 10.1288L5.41446 8.96139C5.44812 8.85839 5.39764 8.77255 5.27983 8.77255Z" fill="white"/>
<path d="M10.7997 8.77255H9.23454C9.13356 8.77255 9.01575 8.85839 8.98209 8.96139L8.67917 10.1288C8.64551 10.2318 8.71282 10.3176 8.8138 10.3176H10.3789C10.4799 10.3176 10.5977 10.2318 10.6314 10.1288L10.9343 8.96139C10.968 8.85839 10.9006 8.77255 10.7997 8.77255Z" fill="white"/>
<path d="M8.67924 6.3176H7.11411C7.01314 6.3176 6.89533 6.40343 6.86167 6.50644L6.55874 7.67383C6.52508 7.77683 6.5924 7.86267 6.69338 7.86267H8.25851C8.35949 7.86267 8.47729 7.77683 8.51095 7.67383L8.81388 6.50644C8.84754 6.40343 8.79705 6.3176 8.67924 6.3176Z" fill="white"/>
<path d="M5.9359 6.3176H4.37077C4.26979 6.3176 4.15198 6.40343 4.11833 6.50644L3.8154 7.67383C3.78174 7.77683 3.84905 7.86267 3.95003 7.86267H5.51517C5.61614 7.86267 5.73395 7.77683 5.76761 7.67383L6.07054 6.50644C6.10419 6.40343 6.03688 6.3176 5.9359 6.3176Z" fill="white"/>
<path d="M9.47007 7.87981H11.0352C11.1362 7.87981 11.254 7.79398 11.2876 7.69097L11.5906 6.52359C11.6242 6.42058 11.5569 6.33475 11.4559 6.33475H9.8908C9.78983 6.33475 9.67202 6.42058 9.63836 6.52359L9.33543 7.69097C9.30177 7.77681 9.35226 7.87981 9.47007 7.87981Z" fill="white"/>
</svg>

<svg width="16" height="16" fill="none" xmlns="http://www.w3.org/2000/svg"><path d="M13.829 1.047h-.707l-.202.756c-.168.686-.824 1.201-1.498 1.201-.37 0-.723-.154-.925-.446a1.241 1.241 0 01-.185-1.064l.118-.447H8.158l-.202.756c-.186.686-.825 1.201-1.515 1.201-.37 0-.707-.154-.926-.446a1.241 1.241 0 01-.185-1.064l.118-.447h-.74c-1.128 0-2.256.893-2.542 2.043L.08 10.936c-.168.618-.067 1.236.287 1.682.336.446.858.704 1.447.704H2.84v.463c0 1.22.977 2.215 2.171 2.215h8.819c1.194 0 2.17-.996 2.17-2.215V3.262c0-1.22-.976-2.215-2.171-2.215zm-12 10.936c-.134 0-.302-.035-.403-.172-.101-.12-.118-.309-.05-.515l1.716-6.558H13.56l-1.633 6.215c-.151.566-.74 1.047-1.279 1.047H1.83v-.017zm12.858 1.802a.87.87 0 01-.858.876H5.027a.87.87 0 01-.858-.876v-.463h6.48c1.127 0 2.254-.893 2.54-2.043l1.498-5.682v8.188z" fill="#fff"/><path d="M6.441 2.386c.404 0 .808-.326.909-.738l.235-.91C7.686.326 7.451 0 7.064 0c-.404 0-.808.326-.91.738l-.235.91c-.1.395.135.738.522.738zm4.981 0c.404 0 .808-.326.91-.738l.235-.91c.1-.412-.135-.738-.522-.738-.404 0-.808.326-.909.738l-.252.91c-.101.395.134.738.538.738zM8.04 8.773H6.474a.293.293 0 00-.252.188l-.303 1.168c-.034.103.034.189.135.189h1.565a.293.293 0 00.252-.19l.303-1.167c.034-.103-.033-.188-.134-.188zm-2.76 0H3.715a.293.293 0 00-.253.188L3.16 10.13c-.033.103.034.189.135.189H4.86a.293.293 0 00.253-.19l.302-1.167c.034-.103-.016-.188-.134-.188zm5.52 0H9.235a.293.293 0 00-.253.188L8.68 10.13c-.033.103.034.189.135.189h1.565a.293.293 0 00.252-.19l.303-1.167c.034-.103-.033-.188-.134-.188zM8.68 6.318H7.113a.293.293 0 00-.252.188l-.303 1.168c-.034.103.033.189.134.189H8.26a.293.293 0 00.252-.19l.303-1.167c.034-.103-.017-.188-.135-.188zm-2.744 0H4.37a.293.293 0 00-.253.188l-.303 1.168c-.033.103.034.189.135.189h1.565a.293.293 0 00.253-.19l.303-1.167c.033-.103-.034-.188-.135-.188zM9.47 7.88h1.565a.293.293 0 00.253-.189l.303-1.167c.033-.103-.034-.19-.135-.19H9.89a.293.293 0 00-.253.19L9.335 7.69c-.033.086.017.189.135.189z" fill="#fff"/></svg>
